X:1
T:Herbert the Sherbert
M:6/8
R:Jig
L:1/8
K:Emin
E2 E e3 | cBA B3 | GBA GFE | FAG FED |
 E2 E e3 | cBA B3 | GBA GFE | AGF E3:|
EFG F3 | EFG F3 | Bef gfe | ded B3 |
 ded B3 | ded G3 | Bde dBG | AGF E3 :|
